X:1
T:Title
%%score { 1 | 2 }
L:1/8
Q:1/4=114
M:4/4
K:Ab
V:1 treble nm="Grand Piano"
V:2 bass 
V:1
 [Ec]4 [Fd]2 [Ec]2 | [Ec]3 [DB] [CA]2 [Ec]2 | B3 B A2 B2 | [Ec]6 z2 | [Ec]2 [DB]2 [CA]2 [EG]2 | %5
w: Asa~Hull * *|||||
 [DF]4 [CE]4 | [A,C]2 [CE]2 [CA]2 [Ec]2 | [Ec]4 [EB]4 | [Ec]4 [Fd]2 [Ec]2 | %9
w: ||||
[M:9/8] [Ec]3 [DB] [CA]2- [CA] [Ee]2 | %10
w: |
[M:4/4] [Fd]3 [Fd] [Ec]2 [DB]2[Q:1/4=110][Q:1/4=107][Q:1/4=103][Q:1/4=100][Q:1/4=96][Q:1/4=93][Q:1/4=89] | %11
w: |
 [CA]6 z2 |] %12
w: |
V:2
 [A,,A,]4 [A,,A,]2 [A,,A,]2 | [A,,A,]3 [A,,A,] [A,,E,]2 [A,,A,]2 | %2
 [E,G,D]3 [E,G,D] [F,A,C]2 [E,G,E]2 | [A,,A,]6 z2 | [A,,A,]2 [A,,E,]2 [A,,E,]2 [A,,E,]2 | %5
 [A,,A,]4 [A,,A,]4 | [A,,E,]2 [A,,A,]2 [A,,A,]2 [A,,A,]2 | [E,A,]4 [E,G,]4 | %8
 [A,,A,]4 [A,,A,]2 [A,,A,]2 |[M:9/8] [A,,A,]3 [A,,A,] [A,,A,]2- [A,,A,] [A,,A,]2 | %10
[M:4/4] [D,A,]3 [D,A,] [E,A,]2 [E,G,]2 | [A,,A,]6 z2 |] %12

